X:1
T:O sacro eletto
T:Giammateo Asola
T:Source : Madrigali a due voci---Venetia---G.Vincenti---1587. Editor : André Vierendeels (18/04/17).
T:Notes : Original clefs : C1, C1 Original note values have been halved Editorial accidentals above the staff "Fuga di un tempo e mezo, in unisono"
T:O sacro eletto
T:©
T:©
C:Giammateo Asola
Z:©
%%score [ 1 2 ]
L:1/8
Q:1/4=120
M:2/2
K:C
V:1 treble nm="Soprano 1" snm="S 1"
V:2 treble nm="Soprano 2" snm="S 2"
V:1
 D4 F2 E2 | F2 G2 A4 | A2 c2 c2 B2 | cBAG F2 E2 | D4 C2 c2 | c2 c2 d2 d2 | e3 d cA c2- | %7
w: O Sa- cro'e-|let- to co-|ro, O Sa- cro'e-|let- * * * * to|co- ro, al-|me si- glie di|Gio- * * * *|
 cB/A/ B2 c4 | z2 A2 A2 G2 | A2 F2 E2 c2 | c2 B2 c2 d2 | e2 A2 A2 G2 | F4 E2 c2 | c2 B2 A4 | %14
w: * * * * ve,|il cui chia-|ro va- lor, il|cui chia- ro va-|lor di- vo- to'a-|do- ro, di-|vo- to'ar- do-|
 B2 A3 A G2 | A2 F2 GFFE/D/ | E4 D2 A2 | B2 d2 d2 c2 | dc/B/ c2 B4 | A4 z2 A2 | A2 G2 AGFE | %21
w: ro, men- tre mi|de sta'e mo- * * * *|* ve,- un-|sant' e vi- vo'ar-|do- * * * *|re, per-|ch'io can- ti _ _ _|
 D2 F2 E4 | D4 z2 A2 | B2 G2 A2 B2 | cdec d2 e2- | e2 d2 e4 | z2 c2 c2 B2 | c2 A2 G2 A2 | %28
w: _ l'ho- no-|re, de|la vo- stra Rei-||* * na,|da te'a la|vo- ce mia vir-|
 A2 G2 ABcA | B2 c2 B4 | A4 z2 A2- | AA G2 A2 F2 | EEFF E4 | D2 d2 c2 BA |"^#""^#" dc/B/ c2 d2 D2 | %35
w: tu di- vi- * * *||na, da-|* te'a la vo- ce|mia vir- tu di- vi-|na, vir- tu di- *|vi- * * * na, vir-|
 E2 F2 E4 | D8 |] %37
w: tu di- vi-|na.|
V:2
 z8 | z4 D4 | F2 E2 F2 G2 | A4 A2 c2 | c2 B2 cBAG | F2 E2 D4 | C2 c2 c2 c2 | d2 d2 e3 d | %8
w: |O|Sa- cro'e- let- to|co- ro, O|Sa- cro'e- let- * * *|* to co-|ro, al me si-|glie di Gio- *|
 cA c3 B/A/ B2 | c4 z2 A2 | A2 G2 A2 F2 | E2 c2 c2 B2 | c2 d2 e2 A2 | A2 G2 F4 | E2 c2 c2 B2 | %15
w: |ve, il|cui chia- ro va-|lor il cui chia-|ro va- lor do-|vo- to'ar- do-|ro, di- vo- to'ar-|
 A4 B2 A2- | AA G2 A2 F2 | GFFE/D/ E4 | D2 A2 B2 d2 | d2 c2 dc/B/ c2 | B4 A4 | z2 A2 A2 G2 | %22
w: do- ro, men-|* tre mi de sta'e|mo- * * * * *|ve, un sant' e|vi- vo'ar- do- * * *|* re,|per- ch'io can-|
 AGFE D2 F2 | E4 D4 | z2 A2 B2 G2 | A2 B2 cdec | d2 e4 d2 | e4 z2 c2 | c2 B2 c2 A2 | G2 A2 A2 G2 | %30
w: ti _ _ _ _ l'ho-|no- re,|de la vo-|stra Rei- * * * *||na, da|te'a la vo- ce|mia vir- ru di-|
 ABcA B2 c2 | B4 A4 | z2 A3 A G2 | A2 F2 EEFF | E4 D2 d2 |"^#""^#" c2 BA dc/B/ c2 | d8 |] %37
w: vi- * * * * *|* na,|da- te'a la|vo- ce mia vir- tu di-|vi- na, vir-|tu di- * vi- * * *|na.|

